!!!COM: Ghizzolo, Giovanni
!!!CDT:
!!!PTL: Madrigali a cinque voci. Libro primo
!!!PPP: Venice
!!!PPR: Alessandro Raverij
!!!PDT: 1608
!!!PUB-format:
!!!RISM: G 1801
!!!OTL: Misero Aminta!
!!!act: IV
!!!scene: 1
!!!verse: 1614
!!!OLT-aminta: Misero Aminta!
!!!AGN: 
!!!SCT: Tam4011614a
!!!SCA: Tam4011614a
!!!original-voices: 5
!!!extant-voices: 5
!!!complete: Y
!!!final: (C)C
**kern	**text	**kern	**text	**kern	**text	**kern	**text	**kern	**text
*part5	*part5	*part4	*part4	*part3	*part3	*part2	*part2	*part1	*part1
*staff5	*staff5	*staff4	*staff4	*staff3	*staff3	*staff2	*staff2	*staff1	*staff1
*I"Basso	*	*I"Tenore	*	*I"Alto	*	*I"Quinto	*	*I"Canto	*
*I'B	*	*I'T	*	*I'A	*	*I'V	*	*I'C	*
*oclefC4	*	*oclefC3	*	*oclefC2	*	*oclefG2	*	*oclefG2	*
*clefF4	*	*clefGv2	*	*clefG2	*	*clefG2	*	*clefG2	*
*k[]	*	*k[]	*	*k[]	*	*k[]	*	*k[]	*
*omet(C)	*	*omet(C)	*	*omet(C)	*	*omet(C)	*	*omet(C)	*
*M4/2	*	*M4/2	*	*M4/2	*	*M4/2	*	*M4/2	*
=1	=1	=1	=1	=1	=1	=1	=1	=1	=1
!!LO:TX:a:t=Prima parte.
[1C	O	2r	.	2.g	O	2r	.	2.ee	O
.	.	2.e	O	.	.	[1cc	O	.	.
.	.	.	.	8a	sfor-	.	.	8ff	sfor-
.	.	.	.	8b	-tu-	.	.	8gg	-tu-
4C]	.	.	.	[1cc	-na-	.	.	[1aa	-na-
8D	sfor-	8f	sfor-	.	.	.	.	.	.
8E	-tu-	8g	-tu-	.	.	.	.	.	.
[2F	-na-	[2a	-na-	.	.	4cc]	.	.	.
.	.	.	.	.	.	8dd	sfor-	.	.
.	.	.	.	.	.	8ee	-tu-	.	.
=2	=2	=2	=2	=2	=2	=2	=2	=2	=2
4F]	.	4a]	.	4cc]	.	4ff	-na-	4aa]	.
4A	-t'A-	4f	-t'A-	4cc	-t'A-	4ff	-t'A-	4aa	-t'A-
2c	-min-	2g	-min-	2cc	-min-	2ee	-min-	2gg	-min-
1F	-ta,	2a	-ta,	4a	-ta,	1ff	-ta,	4ff	-ta,
.	.	.	.	2a	O	.	.	2cc	<O
.	.	[2c	<O	.	.	.	.	.	.
.	.	.	.	8b	sfor-	.	.	8dd	sfor-
.	.	.	.	8cc	-tu-	.	.	8ee	-tu-
=3	=3	=3	=3	=3	=3	=3	=3	=3	=3
2.F	O	4c]	.	2dd	-na-	2r	.	[1ff	-na-
.	.	8d	sfor-	.	.	.	.	.	.
.	.	8e	-tu-	.	.	.	.	.	.
.	.	4f	-na-	2dd	-to,	2.ff	<O	.	.
8G	sfor-	4d	-t'A-	.	.	.	.	.	.
8A	-tu-	.	.	.	.	.	.	.	.
2.B-i	-na-	[1d	-min-	4d	<O	.	.	4ff]	.
.	.	.	.	8e	sfor-	8gg	sfor-	4ee	-t'A-
.	.	.	.	8f	-tu-	8aa	-tu-	.	.
.	.	.	.	[2g	-na-	[2bb-X	-na-	[2dd	-min-
4A	-t'A-	.	.	.	.	.	.	.	.
=4	=4	=4	=4	=4	=4	=4	=4	=4	=4
1G	-min-	1d]	.	4g]	.	4bb-]	.	4dd]	.
.	.	.	.	4d	-t'>A-	4aa	-t'A-	2cc	.
.	.	.	.	2g	-min-	2gg	-min-	.	.
.	.	.	.	.	.	.	.	4b	.
1C	-ta,	1c	-ta,>	1g	-ta,	1ee	-ta,>	2cc	-ta,>
.	.	.	.	.	.	.	.	2gg	Tu,
=5	=5	=5	=5	=5	=5	=5	=5	=5	=5
0r	.	2g	Tu,	0r	.	0r	.	4r	.
.	.	.	.	.	.	.	.	4ee	in
.	.	4r	.	.	.	.	.	4ff	gui-
.	.	4e	in	.	.	.	.	4gg	-sa
.	.	4f	gui-	.	.	.	.	4.aa	d'a-
.	.	4g	-sa	.	.	.	.	.	.
.	.	.	.	.	.	.	.	8gg	.
.	.	4.a	d'a-	.	.	.	.	8ffL	.
.	.	.	.	.	.	.	.	8ee	.
.	.	.	.	.	.	.	.	8ff	.
.	.	8g	.	.	.	.	.	8eeJ	.
=6	=6	=6	=6	=6	=6	=6	=6	=6	=6
0r	.	8fL	.	2r	.	0r	.	8ddL	.
.	.	8e	.	.	.	.	.	8cc	.
.	.	8f	.	.	.	.	.	8dd	.
.	.	8eJ	.	.	.	.	.	8ccJ	.
.	.	8dL	.	4r	.	.	.	8bL	.
.	.	8cJ	.	.	.	.	.	8aJ	.
.	.	4d	.	8f#X	che	.	.	4b	.
.	.	.	.	8g	fe-	.	.	.	.
.	.	2c	-pe	4a	-ren-	.	.	4cc	-pe
.	.	.	.	4a	-do	.	.	8ee	che
.	.	.	.	.	.	.	.	8ff	fe-
.	.	8c	che	[2g	mo-	.	.	4.gg	-ren-
.	.	8d	fe-	.	.	.	.	.	.
.	.	4e	-ren-	.	.	.	.	.	.
.	.	.	.	.	.	.	.	8ee	-do
=7	=7	=7	=7	=7	=7	=7	=7	=7	=7
0r	.	2B	-do	4g]	.	0r	.	2dd	mo-
.	.	.	.	8f#XL	.	.	.	.	.
.	.	.	.	8eJ	.	.	.	.	.
.	.	2d	mo-	2f#X	.	.	.	2dd	-re,
.	.	2G	-re,	2g	-re,	.	.	4r	.
.	.	.	.	.	.	.	.	4dd	E
.	.	4r	.	4r	.	.	.	8dd	nel-
.	.	.	.	.	.	.	.	8dd	-le
.	.	4g	E	4b	E	.	.	8dd	pia-
.	.	.	.	.	.	.	.	8dd	-ghe al-
=8	=8	=8	=8	=8	=8	=8	=8	=8	=8
0r	.	8g	nel-	8b	nel-	0r	.	4dd	-trui
.	.	8g	-le	8b	-le	.	.	.	.
.	.	8g	pia-	8b	pia-	.	.	2ee	la-
.	.	8g	-ghe al-	8b	-ghe al-	.	.	.	.
.	.	4g	-trui	4b	-trui	.	.	.	.
.	.	2a	la-	2a	la-	.	.	8dd	-scia
.	.	.	.	.	.	.	.	8cc	la
.	.	.	.	.	.	.	.	1dd	vi-
.	.	8g	-scia	8b	-scia	.	.	.	.
.	.	8f#X	la	8a	la	.	.	.	.
.	.	2g	vi-	2b	vi-	.	.	.	.
=9	=9	=9	=9	=9	=9	=9	=9	=9	=9
2r	.	2c	-ta,	2cc	-ta,	2r	.	2cc	-ta,
2.c	Con	2.e	Con	2.g	Con	2.ee	Con	2.cc	Con
8A	la	8c	la	8a	la	8ee	la	8cc	la
8G	tua	8B	tua	8b	tua	8gg	tua	8dd	tua
[2c	mor-	[2e	mor-	[2cc	mor-	[2gg	mor-	[2ee	mor-
=10	=10	=10	=10	=10	=10	=10	=10	=10	=10
8c]	.	8e]	.	8cc]	.	8gg]	.	8ee]	.
8A	-t'hai	8e	-t'hai	8cc	-t'hai	8aa	-t'hai	8ee	-t'hai
8d	pur	8f	pur	8a	pur	8ff	pur	8dd	pur
8c	tra-	8g	tra-	8cc	tra-	8ee	tra-	8ee	tra-
4B-X	-fit-	4d	-fit-	4dd	-fit-	4dd	-fit-	4.ff	-fit-
4A	-to al	4c	-to al	4a	-to al	4ff	-to al	.	.
.	.	.	.	.	.	.	.	8cc	-t'al
2c	fi-	1e	fi-	2g	fi-	2ee	fi-	2gg	fi-
4c	-ne	.	.	[2cc	-ne	[2ee	-ne	4gg	-ne
4A	Quel	.	.	.	.	.	.	4aa	Quel
=11	=11	=11	=11	=11	=11	=11	=11	=11	=11
1E	du-	4e	-ne	4cc]	.	4ee]	.	1.gg	du-
.	.	4e	Quel	4cc	Quel	4ee	Quel	.	.
.	.	1g	du-	1b	du-	1dd	du-	.	.
1F	-ro	.	.	.	.	.	.	.	.
.	.	2d	-ro	[2a	-ro	2cc	-ro	2ff	-ro
=12	=12	=12	=12	=12	=12	=12	=12	=12	=12
0G	cor	2.e	cor	2a]	.	1b	cor	1ee	cor
.	.	.	.	1g	cor	.	.	.	.
.	.	4d	che	.	.	.	.	.	.
.	.	8d	non	.	.	8r	.	8r	.
.	.	8d	po-	.	.	8dd	che	8gg	che
.	.	8d	-tes-	.	.	8dd	non	8gg	non
.	.	8d	-ti	.	.	8dd	po-	8gg	po-
.	.	4d	mai	4r	.	8dd	-tes-	8gg	-tes-
.	.	.	.	.	.	8dd	-ti	8gg	-ti
.	.	[4g	Pun-	4g	che	[4dd	mai	[4gg	mai
=13	=13	=13	=13	=13	=13	=13	=13	=13	=13
8r	.	4g]	.	8g	non	4dd]	.	4gg]	.
8G	che	.	.	8g	po-	.	.	.	.
8G	non	8f	-ger	8g	-tes-	2ee	Pun-	2gg	Pun-
8G	po-	8e	vi-	8g	-ti	.	.	.	.
8G	-tes-	4g	-ven-	2g	mai	.	.	.	.
8G	-ti	.	.	.	.	.	.	.	.
2G	mai	2d	-do,	.	.	8dd	-ger	8ff	-ger
.	.	.	.	.	.	8cc	vi-	8ee	vi-
.	.	.	.	2g	Pun-	4b	-ven-	4dd	-ven-
2c	Pun-	2e	Pun-	.	.	4g	-do,	4cc	-do,
.	.	.	.	8f	-ger	4r	.	[2ee	Pun-
.	.	.	.	8e	vi-	.	.	.	.
8B-X	-ger	8d	-ger	4g	-ven-	[4gg	Pun-	.	.
8A	vi-	8c	vi-	.	.	.	.	.	.
=14	=14	=14	=14	=14	=14	=14	=14	=14	=14
2G	-ven-	2B	-ven-	2g	-do,	4gg]	.	4ee]	.
.	.	.	.	.	.	8ff	-ger	8dd	-ger
.	.	.	.	.	.	8ee	vi-	8cc	vi-
2G	-do	2B	-do,	2.g	Pun-	2dd	-ven-	2b	-ven-
2.G	Pun-	2r	.	.	.	4dd	-do,	2b	-do,
.	.	.	.	8f	-ger	2ee	<Pun-	.	.
.	.	.	.	8e	vi-	.	.	.	.
.	.	[2g	<Pun-	2g	-ven-	.	.	[2ee	<Pun-
8F	-ger	.	.	.	.	8dd	-ger	.	.
8E	vi-	.	.	.	.	8cc	vi-	.	.
=15	=15	=15	=15	=15	=15	=15	=15	=15	=15
1G	-ven-	4g]	.	1g	-do;	4b	-ven-	4ee]	.
.	.	8f	-ger	.	.	2cc	.	8dd	-ger
.	.	8e	vi-	.	.	.	.	8cc	vi-
.	.	2d	-ven-	.	.	.	.	2dd	-ven-
.	.	.	.	.	.	4b	.	.	.
1C	-do;	1c	-do;>	1r	.	1cc	-do;>	1ee	-do;>
=16	=16	=16	=16	=16	=16	=16	=16	=16	=16
2r	.	2r	.	2.g	hor,	2r	.	2r	.
2.c	hor,	2.e	hor,	.	.	2.gg	hor,	2.ee	hor,
.	.	.	.	8g	se	.	.	.	.
.	.	.	.	8a	tu	.	.	.	.
.	.	.	.	4.e	spir-	.	.	.	.
8c	se	8a	se	.	.	8gg	se	8ee	se
8d	tu	8a	tu	8e	-to er-	8ff	tu	8dd	tu
4.A	spir-	4c	spir-	8.aL	-ran-	4ee	spir-	4cc	spir-
.	.	.	.	16b	.	.	.	.	.
.	.	4c	-to er-	16a	.	4ee	-to er-	4cc	-to er-
.	.	.	.	16g	.	.	.	.	.
8A	-to er-	.	.	16f	.	.	.	.	.
.	.	.	.	16eJ	.	.	.	.	.
=17	=17	=17	=17	=17	=17	=17	=17	=17	=17
8.dL	-ran-	2d	-ran-	8.fL	.	2dd	-ran-	2a	-ran-
16e	.	.	.	16g	.	.	.	.	.
16d	.	.	.	16f	.	.	.	.	.
16c	.	.	.	16e	.	.	.	.	.
16B	.	.	.	16d	.	.	.	.	.
16AJ	.	.	.	16cJ	.	.	.	.	.
8.GL	.	4B	-te,	2d	.	2dd	-te,	2b	.
16A	.	.	.	.	.	.	.	.	.
16G	.	4G	Sì	.	.	.	.	.	.
16F	.	.	.	.	.	.	.	.	.
16E	.	.	.	.	.	.	.	.	.
16DJ	.	.	.	.	.	.	.	.	.
1C	.	4.c	co-	4e	-te,	1r	.	2cc	-te,
.	.	.	.	4c	Sì	.	.	.	.
.	.	8A	-m'io	.	.	.	.	.	.
.	.	2e	cre-	4.g	co-	.	.	4g	Sì
.	.	.	.	.	.	.	.	[4cc	co-
.	.	.	.	8e	-m'io	.	.	.	.
=18	=18	=18	=18	=18	=18	=18	=18	=18	=18
2G	-te,	2d	-do,	2g	cre-	0r	.	4cc]	.
.	.	.	.	.	.	.	.	4b	-m'io
4G	Sì	4e	Si	2g	-do,	.	.	8eeL	cre-
.	.	.	.	.	.	.	.	8dd	.
2c	co-	4g	co-	.	.	.	.	8cc	.
.	.	.	.	.	.	.	.	8bJ	.
.	.	4e	-m'io	1r	.	.	.	4a	.
4B	-m'io	2g	cre-	.	.	.	.	4g	.
2d	cre-	.	.	.	.	.	.	2a	.
.	.	4f#X	.	.	.	.	.	.	.
=19	=19	=19	=19	=19	=19	=19	=19	=19	=19
2G	-do,	2g	-do,	2r	.	2r	.	2b	-do,
4r	.	4r	.	4r	.	4r	.	4r	.
4G	e	4d	e	4b	e	4gg	e	4dd	e
8D	de	8d	de	8a	de	8ff	de	8dd	de
8E	le	8G	le	8g	le	8ee	le	8cc	le
8G	mem-	8B	mem-	8g	mem-	8dd	mem-	8b	mem-
8A	-bra i	8c	-bra i-	8e	-bra i-	8cc	-bra i-	8a	-bra i-
4G	gnu-	4B	-gnu-	4g	-gnu-	4dd	-gnu-	4b	-gnu-
8G	-de,	8B	-de,	8g	-de,	8dd	-de,	8b	-de,
8E	Qui in-	8G	Qui in-	8g	Qui in-	8ee	Qui in-	8cc	Qui in-
=20	=20	=20	=20	=20	=20	=20	=20	=20	=20
4D	-tor-	4d	-tor-	4a	-tor-	4ff	-tor-	4dd	-tor-
4D	-no	4d	-no	4a	-no	4ff	-no	4dd	-no
1A	sei,	[2e	sei,	[2a	sei,	1ee	sei,	[2cc	sei,
.	.	1e]	.	1a]	.	.	.	1cc]	.
[2c	mi-	.	.	.	.	[2ee	mi-	.	.
=21	=21	=21	=21	=21	=21	=21	=21	=21	=21
4c]	.	2.g	mi-	2r	.	4ee]	.	2.ee	mi-
8E	-ra il	.	.	.	.	8g	-ra il	.	.
8F	suo	.	.	.	.	8a	suo	.	.
2G	pian-	.	.	2.g	mi-	2b	pian-	.	.
.	.	8B	-ra il	.	.	.	.	8g	-ra il
.	.	8c	suo	.	.	.	.	8a	suo
1G	-to,	2d	pian-	.	.	1g	-to,	2b	pian-
.	.	.	.	8B	-ra il	.	.	.	.
.	.	.	.	8c	suo	.	.	.	.
.	.	2d	-to,	2d	pian-	.	.	2b	-to,
=22	=22	=22	=22	=22	=22	=22	=22	=22	=22
0r	.	4r	.	4d	-to,	0r	.	4r	.
.	.	4A	e	4e	e	.	.	4cc#X	e
.	.	4.d	go-	4.f	go-	.	.	4.dd	go-
.	.	8d	-di. A-	8f	-di. A-	.	.	8dd	-di. A-
.	.	4d	-man-	4f	-man-	.	.	4dd	-man-
.	.	4c	-te in	4g	-te in	.	.	4ee	-te in
.	.	4.f	vi-	4.a	vi-	.	.	4.ff	vi-
.	.	8F	-ta, a-	8cc	-ta, a-	.	.	8ff	-ta, a-
=23	=23	=23	=23	=23	=23	=23	=23	=23	=23
1r	.	4G	-ma-	4b-X	-ma-	1r	.	8dd	-ma-
.	.	.	.	.	.	.	.	8ee	-to in
.	.	4A	-to in	4a	-to in	.	.	2ff	mor-
.	.	2c	mor-	2g	mor-	.	.	.	.
.	.	.	.	.	.	.	.	4ee	.
2r	.	2F	-te;	2a	-te;	2r	.	2ff	-te;
4r	.	4r	.	4r	.	4r	.	4r	.
4D	e	4A	e	4a	e	4dd	e	4ff#X	e
=24	=24	=24	=24	=24	=24	=24	=24	=24	=24
4.D	s'e-	4.d	s'e-	4.a	s'e-	4.dd	s'e-	4.ff#i	s'e-
8D	-ra	8d	-ra	8a	-ra	8dd	-ra	8ff#i	-ra
4D	Tuo	4d	Tuo	4a	Tuo	4dd	Tuo	4ff#i	Tuo
4D	de-	4d	de-	4a	de-	4dd	de-	4ff#i	de-
4D	-stin	4d	-stin	4a	-stin	4dd	-stin	4ff#i	-stin
8D	che	8d	che	8a	che	8dd	che	8ff#i	che
8G	tu	8B	tu	8b	tu	8dd	tu	8gg	tu
[4.F	fo-	4.A	fo-	4.cc	fo-	4.ff	fo-	4.aa	fo-
8F]	-sti in	8c	-sti in	8cc	-sti in	8ff	-sti in	8aa	-sti in
=25	=25	=25	=25	=25	=25	=25	=25	=25	=25
4B-X	mor-	4d	mor-	4b-X	mor-	4ff	mor-	4dd	mor-
4A	-t'a-	4c	-t'a-	4cc	-t'a-	4ff	-t'a-	4ff	-t'a-
2.c	-ma-	2.e	-ma-	2.cc	-ma-	2.gg	-ma-	2.ee	-ma-
4c	-to,	4e	-to,	4cc	-to,	4gg	-to,	4ee	-to,
4r	.	4r	.	4r	.	4r	.	4r	.
[8c	E	[8e	E	8g	E	8ee	E	8cc	E
8c]	se	8e]	se	8g	se	8ee	se	8cc	se
=26	=26	=26	=26	=26	=26	=26	=26	=26	=26
4c	que-	4e	que-	4g	que-	4ee	que-	4cc	que-
8c	-sto	8e	-sto	8g	-sto	8ee	-sto	8cc	-sto
8c	cru-	8e	cru-	8g	cru-	8ee	cru-	8cc	cru-
[2e	-del	[2e	-del	[2g	-del	[2ee	-del	[2b	-del
8e]	.	8e]	.	8g]	.	8ee]	.	8b]	.
8B	vo-	8g	vo-	8g	vo-	8dd	vo-	8dd	vo-
8c	-lea	8g	-lea	8e	-lea	8cc	-lea	8ee	-lea
8d	l'a-	8d	l'a-	8f	l'a-	8a	l'a-	8dd	l'a-
4G	-mo-	4d	-mo-	2g	-mo-	4b	-mo-	4dd	-mo-
4G	-re	4d	-re	.	.	4b	-re	[4dd	-re
=27	=27	=27	=27	=27	=27	=27	=27	=27	=27
4d	Ven-	4f	Ven-	2a	-re	4dd	Ven-	4dd]	.
8d	-der-	8f	-der-	.	.	8dd	-der-	4aa	Ven-
8d	-ti	8f	-ti	.	.	8dd	-ti	.	.
8d	sol	8f	sol	4a	Ven-	8dd	sol	8aa	-der-
8d	con	8f	con	.	.	8dd	con	8aa	-ti
4.d	prez-	4.f	prez-	8a	-der-	[4dd	prez-	8aa	sol
.	.	.	.	8a	-ti	.	.	8aa	con
.	.	.	.	8a	sol	8dd]	.	8aa	prez-
8d	-zo	8f	-zo	8a	con	8dd	-zo	8aa	-zo
8c	co-	8e	co-	4.a	prez-	8ee	co-	8ee	co-
8c	-sì	8e	-sì	.	.	8cc	-sì	8ff	-sì
2B	ca-	2d	ca-	.	.	2dd	ca-	2gg	ca-
.	.	.	.	8a	-zo	.	.	.	.
.	.	.	.	8g	co-	.	.	.	.
.	.	.	.	8f#X	-sì	.	.	.	.
=28	=28	=28	=28	=28	=28	=28	=28	=28	=28
4B	-ro,	4d	-ro,	2g	ca-	1b	-ro,	2gg	-ro,
2e	De-	2g	De-	.	.	.	.	.	.
.	.	.	.	2g	-ro,	.	.	2.gg	De-
8d	-sti	8f	-sti	.	.	.	.	.	.
8c	quel	8e	quel	.	.	.	.	.	.
8B	prez-	8d	prez-	1r	.	1r	.	.	.
8c	-zo	8e	-zo	.	.	.	.	.	.
4.d	tu	4.f	tu	.	.	.	.	8ff	-sti
.	.	.	.	.	.	.	.	8ee	quel
.	.	.	.	.	.	.	.	8dd	prez-
8d	ch'el-	8f	ch'el-	.	.	.	.	8ee	-zo
8c	-la	8e	-la	.	.	.	.	[4ff	tu
8B	ri-	8d	ri-	.	.	.	.	.	.
=29	=29	=29	=29	=29	=29	=29	=29	=29	=29
2A	-chie-	2c	-chie-	2r	.	2.aa	De-	8ff]	.
.	.	.	.	.	.	.	.	8ff	ch'el-
.	.	.	.	.	.	.	.	8ee	-la
.	.	.	.	.	.	.	.	8dd	ri-
2A	-se,	4c	-se,	2.a	De-	.	.	2cc	-chie-
.	.	2c	De-	.	.	8gg	-sti	.	.
.	.	.	.	.	.	8ff	quel	.	.
1r	.	.	.	.	.	8ee	prez-	2cc	-se,
.	.	.	.	.	.	8ff	-zo	.	.
.	.	8B	-sti	8g	-sti	[4gg	tu	.	.
.	.	8A	quel	8f	quel	.	.	.	.
.	.	8G	prez-	8e	prez-	8gg]	.	2r	.
.	.	8A	-zo	8f	-zo	8gg	ch'el-	.	.
.	.	[4B	tu	[4g	tu	8ff	-la	.	.
.	.	.	.	.	.	8ee	ri-	.	.
=30	=30	=30	=30	=30	=30	=30	=30	=30	=30
2r	.	8B]	.	8g]	.	2dd	-chie-	2r	.
.	.	8B	ch'el-	8g	ch'el-	.	.	.	.
.	.	8A	-la	8f	-la	.	.	.	.
.	.	8G	ri-	8e	ri-	.	.	.	.
2.F	De-	2A	-chie-	2d	-chie-	2dd	-se,	2.aa	De-
.	.	2A	-se,	4c	-se,	4r	.	.	.
8E	-sti	.	.	2cc	De-	2ee	De-	8gg	-sti
8D	quel	.	.	.	.	.	.	8ff	quel
8C	prez-	2r	.	.	.	.	.	8ee	prez-
8D	-zo	.	.	.	.	.	.	8ff	-zo
[4E	tu	.	.	8b	-sti	8dd	-sti	[4gg	tu
.	.	.	.	8a	quel	8cc	quel	.	.
=31	=31	=31	=31	=31	=31	=31	=31	=31	=31
8E]	.	2r	.	4g	prez-	8b	prez-	8gg]	.
8E	ch'el-	.	.	.	.	8cc	-zo	8gg	ch'el-
8D	-la	.	.	4a	-zo	4.dd	tu	8ff	-la
8C	ri-	.	.	.	.	.	.	8ee	ri-
2D	-chie-	4r	.	8b	tu	.	.	2dd	-chie-
.	.	.	.	8b	ch'el-	8dd	ch'el-	.	.
.	.	4d	E	8a	-la	8cc	-la	.	.
.	.	.	.	8g	ri-	8b	ri-	.	.
1D	-se,	8d	l'a-	2f#X	-chie-	4a	-chie-	4dd	-se,
.	.	8d	-mor	.	.	.	.	.	.
.	.	4.d	suo	.	.	4a	-se,	4dd	E
.	.	.	.	4f#i	-se,	2r	.	8dd	l'a-
.	.	8B	col	.	.	.	.	8dd	-mor
.	.	8B	tuo	4f#i	E	.	.	[4dd	suo
.	.	8B	mo-	.	.	.	.	.	.
=32	=32	=32	=32	=32	=32	=32	=32	=32	=32
1r	.	4.e	-rir	8g#X	l'a-	0r	.	8dd]	.
.	.	.	.	8g#i	-mor	.	.	8b	col
.	.	.	.	[4g#i	suo	.	.	8b	tuo
.	.	8e	com-	.	.	.	.	8b	mo-
.	.	2c#X	-pra-	8g#]	.	.	.	4.ee	-rir
.	.	.	.	8a	col	.	.	.	.
.	.	.	.	8a	tuo	.	.	.	.
.	.	.	.	8a	mo-	.	.	8ee	com-
2r	.	4d	-sti,	4f#X	-rir	.	.	1dd	-pra-
.	.	4d	E	4f#i	com-	.	.	.	.
2G	E	8d	l'a-	2gnX	-pra-	.	.	.	.
.	.	8d	-mor	.	.	.	.	.	.
.	.	[4d	suo	.	.	.	.	.	.
=33	=33	=33	=33	=33	=33	=33	=33	=33	=33
8G	l'a-	8d]	.	4g	-sti,	4r	.	2dd	-sti,
8G	-mor	8B	col	.	.	.	.	.	.
4.G	suo	8B	tuo	4bnX	E	4gg	E	.	.
.	.	8B	mo-	.	.	.	.	.	.
.	.	2e	-rir	8b	l'a-	8gg	l'a-	2r	.
8E	col	.	.	8b	-mor	8gg	-mor	.	.
8E	tuo	.	.	4.b	suo	4.gg	suo	.	.
8E	mo-	.	.	.	.	.	.	.	.
2A	-rir	2c#X	com-	.	.	.	.	4r	.
.	.	.	.	8a	col	8ee	col	.	.
.	.	.	.	8a	tuo	8ee	tuo	4a	E
.	.	.	.	8a	mo-	8ee	mo-	.	.
2F#X	com-	2d	-pras-	4.a	-rir	4.aa	-rir	8dd	l'a-
.	.	.	.	.	.	.	.	8dd	-mor
.	.	.	.	.	.	.	.	[4dd	suo
.	.	.	.	8a	com-	8aa	com-	.	.
=34	=34	=34	=34	=34	=34	=34	=34	=34	=34
0G	-pra-	2d	-ti,	1bnX	-pra-	0gg	-pra-	8dd]	.
.	.	.	.	.	.	.	.	8dd	col
.	.	.	.	.	.	.	.	8dd	tuo
.	.	.	.	.	.	.	.	8dd	mo-
.	.	8r	.	.	.	.	.	2.ee	-rir
.	.	8B	col	.	.	.	.	.	.
.	.	8B	tuo	.	.	.	.	.	.
.	.	8B	mo-	.	.	.	.	.	.
.	.	4c	-rir	[1g	-sti.	.	.	.	.
.	.	4c	com-	.	.	.	.	4ee	com-
.	.	2B	-pra-	.	.	.	.	2dd	-pra-
=35	=35	=35	=35	=35	=35	=35	=35	=35	=35
0Cl	-sti.	0cl	-sti.	0gl]	.	0eel	-sti.	0ccl	-sti.
==	==	==	==	==	==	==	==	==	==
*-	*-	*-	*-	*-	*-	*-	*-	*-	*-
!!!system-decoration: [*]
!!!RDF**kern: i = editorial accidental
!!!RDF**kern: l = terminal long
!!!ENC: Emiliano Ricciardi
!!!END: 2017/09/14
!!!EED: Coluzzi, Seth
!!!EEV: 2018/07/13
!!!YEC: Copyright 2018 Emiliano Ricciardi, All Rights Reserved
!!!ONB: Translated from MusicXML on 2018/07/13 and edited by Craig Stuart Sapp
!!@@BEGIN:	VERSEDATA
!!@CATALOGNUM:	Tam4011614
!!@LAST_MODIFIED: 2020/07/12
!!@ACT:         IV
!!@SCENE:       1
!!@VERSE:        1614
!!@TITLE:        Misero Aminta!
!!@MANUSRC:	A-Am, A-Au, A-Br, A-CM, A-F, A-Ub
!!@PRINTSRC:	A-1580D, A-1580M, A-1581B, A-1581B<sub>bis</sub>, A-1581M, A-1581M<sub>bis</sub>, A-1581O, A-1581V, A-1582B, A-1583M, A-1583V, A-1584A, A-1585C, A-1585V, A-1585V<sub>bis</sub>, A-1588B, A-1589M, A-1589V, A-1590Mb, A-1590Mv, A-1591M, A-1591W, A-1592B, A-1596B, A-1596M, A-1599Bf, A-1599Bp, A-1600R, A-1601Bf, A-1601Bp, A-1602B, A-1603Bf, A-1603Bv, A-1603Z, A-1605R, A-1606Z, A-1608D, A-1608DP, A-1609Bf, A-1609Bv, A-1609Z, A-1611D, A-1614GT, A-1617D, A-1618B, A-1619D, A-1619I, A-1620V, A-1622D, A-1623A, A-1624M, A-1624S, A-1624T, A-1625U, A-1628U, A-1632D, A-1634R
!!@@BEGIN:	VERSES
!!@ABOUTIT:	
!!@ABOUTEN:	
!!@EDITOR:	Solerti, Angelo
!!@EDITION_TITLE: Opere minori in versi di Torquato Tasso. Edizione critica sugli autografi e sulle antiche stampe.
!!@EDITION_LOC:	Bologna
!!@EDITION_PUB:	Zanichelli
!!@EDITION_DATE:  1895
!!@EDITION_VOL:	3
!!@EDITION_PAGE:
!!@TRANSLATOR:	Emiliano Ricciardi and Amyrose McCue Gill
!!@VERSE:	
!!	Misero Aminta!
!!	Tu, in guisa d'ape che ferendo more
!!	E ne le piaghe altrui lascia la vita,
!!	Con la tua morte hai pur trafitto al fine
!!	Quel duro cuor che non potesti mai
!!	Punger vivendo. Hor, se tu spirto errante,
!!	Sì come io credo, e de le membra ignudo
!!	Qui intorno sei, mira il suo pianto, e godi.
!!	Amante in vita, amato in morte: e s'era
!!	Tuo destin che sol fosti in morte amato,
!!	E se questa crudel volea l'amore
!!	Venderti sol con prezzo così caro,
!!	Desti quel prezzo tu ch'ella richiese,
!!	E l'amor suo co 'l tuo morir comprasti.
!!@TVERSE:
!!	Unhappy Aminta!
!!	You, in the guise of a bee that, pricking, dies,
!!	And in another’s wounds leaves [behind] its life,
!!	With your death you have also pierced to the furthermost [part]
!!	That hard heart that you could not ever
!!	Sting while alive. Now, if you, wandering spirit,
!!	As I believe, and naked of limb,
!!	Are here around, witness her plaint, and take joy in it.
!!	Lover in life, beloved in death: and if it was
!!	Your destiny that you were only loved in death,
!!	And if this cruel woman wanted
!!	To sell you love only at a price so dear,
!!	Offer that price which she demanded,
!!	And her love with your death you bought.
!!@@END:		VERSES
!!@NEW_CRIT_ED:   Torquato Tasso, <i>Aminta. "Princeps."</i>, ed. Matteo Navone, vol. 9 of Commissione Nazionale per l'Edizione delle opere del Tasso. Studi e Testi (Alessandria: Edizioni dell'Orso, 2014).
!!@ATTRIBUTION_ABOUT:	
!!@DATING:	1573
!!@DEDICATEE:	
!!@COMMENTARY:
!!@@END:		VERSEDATA
!!@@BEGIN: SETTING
!!@CATALOGNUM:	Tam4011614a
!!@ACT:		IV
!!@SCENE:		1
!!@VERSE:		1614
!!@TITLE:		Misero Aminta!
!!@SETTINGTITLE: O sfortunat'Aminta,
!!@COMPOSER:	Ghizzolo, Giovanni
!!@PRINCEPSTITLE:	Madrigali a cinque voci. Libro primo
!!@PRINCEPSLOC:	Venice
!!@NORMLOC:	Venice
!!@NORMPUB:	Alessandro Raverij
!!@NORMPUBSHORT:	Raverij
!!@PRINCEPSPUB:	Alessandro Raverij
!!@PRINCEPSYEAR:	1608
!!@PRINCEPSRISM:	G 1801
!!@OVOICES:	5
!!@EXTANTVOICES:	5
!!@OMENSURATION:	C
!!@OCLEFS:	G2,G2,C2,C3,C4
!!@OTIME:		
!!@OKEYSIG:	-
!!@FINAL:		(C)C
!!@TIMPEDITOR:	Coluzzi, Seth
!!@PARTS:		1 of 2
!!@REPRINTS:	
!!@@END: SETTING
